lib/brands/icons/browserstack.svg

<svg xmlns="http://www.w3.org/2000/svg" fill="none" aria-hidden="true" viewBox="0 0 48 48"><g id="browserstack-Icon"><g id="Group"><path id="Vector" fill="#F5BB60" d="M24.0196 42C33.9499 42 42.0001 33.9499 42.0001 24.0195C42.0001 14.0891 33.9499 6.039 24.0196 6.039C14.0892 6.039 6.03906 14.0891 6.03906 24.0195C6.03906 33.9499 14.0892 42 24.0196 42Z"/><path id="Vector_2" fill="#E86F32" d="M22.1863 38.3727C31.1258 38.3727 38.3727 31.1258 38.3727 22.1863C38.3727 13.2469 31.1258 6 22.1863 6C13.2469 6 6 13.2469 6 22.1863C6 31.1258 13.2469 38.3727 22.1863 38.3727Z"/><path id="Vector_3" fill="#E53D42" d="M24.3317 34.0823C32.0864 34.0823 38.3729 27.7959 38.3729 20.0412C38.3729 12.2864 32.0864 6 24.3317 6C16.577 6 10.2905 12.2864 10.2905 20.0412C10.2905 27.7959 16.577 34.0823 24.3317 34.0823Z"/><path id="Vector_4" fill="#BFD141" d="M25.4628 34.0824C32.5928 34.0824 38.3729 28.3023 38.3729 21.1723C38.3729 14.0422 32.5928 8.26221 25.4628 8.26221C18.3328 8.26221 12.5527 14.0422 12.5527 21.1723C12.5527 28.3023 18.3328 34.0824 25.4628 34.0824Z"/><path id="Vector_5" fill="#6DB64C" d="M24.5267 34.0823C31.1398 34.0823 36.5007 28.7214 36.5007 22.1083C36.5007 15.4953 31.1398 10.1343 24.5267 10.1343C17.9137 10.1343 12.5527 15.4953 12.5527 22.1083C12.5527 28.7214 17.9137 34.0823 24.5267 34.0823Z"/><path id="Vector_6" fill="#AFDBE7" d="M22.6156 30.299C28.1731 30.299 32.6784 25.7938 32.6784 20.2362C32.6784 14.6787 28.1731 10.1734 22.6156 10.1734C17.058 10.1734 12.5527 14.6787 12.5527 20.2362C12.5527 25.7938 17.058 30.299 22.6156 30.299Z"/><path id="Vector_7" fill="#57BADF" d="M24.2533 26.9837C28.9062 26.9837 32.678 23.2119 32.678 18.559C32.678 13.9062 28.9062 10.1343 24.2533 10.1343C19.6005 10.1343 15.8286 13.9062 15.8286 18.559C15.8286 23.2119 19.6005 26.9837 24.2533 26.9837Z"/><path id="Vector_8" fill="#02B2D6" d="M25.3066 27.0228C29.3994 27.0228 32.7172 23.7049 32.7172 19.6122C32.7172 15.5194 29.3994 12.2015 25.3066 12.2015C21.2138 12.2015 17.896 15.5194 17.896 19.6122C17.896 23.7049 21.2138 27.0228 25.3066 27.0228Z"/><path id="Vector_9" fill="url(#paint0_radial_94_17210)" d="M24.2145 26.9838C27.7041 26.9838 30.533 24.1549 30.533 20.6652C30.533 17.1756 27.7041 14.3467 24.2145 14.3467C20.7249 14.3467 17.896 17.1756 17.896 20.6652C17.896 24.1549 20.7249 26.9838 24.2145 26.9838Z"/><path id="Vector_10" fill="#231F20" d="M24.2145 26.9838C27.7041 26.9838 30.533 24.1549 30.533 20.6652C30.533 17.1756 27.7041 14.3467 24.2145 14.3467C20.7249 14.3467 17.896 17.1756 17.896 20.6652C17.896 24.1549 20.7249 26.9838 24.2145 26.9838Z"/><path id="Vector_11" fill="white" d="M25.8739 19.8372C26.5003 20.1183 27.3642 19.5527 27.8035 18.5738C28.2427 17.595 28.0909 16.5736 27.4644 16.2925C26.838 16.0114 25.974 16.577 25.5348 17.5559C25.0956 18.5347 25.2474 19.5561 25.8739 19.8372Z"/></g></g><defs><radialGradient id="paint0_radial_94_17210" cx="0" cy="0" r="1" gradientTransform="translate(24.232 20.666) scale(6.33354)" gradientUnits="userSpaceOnUse"><stop stop-color="#797979"/><stop offset="1" stop-color="#4C4C4C"/></radialGradient></defs></svg>

<svg xmlns="http://www.w3.org/2000/svg" fill="none" aria-hidden="true" viewBox="0 0 48 48"><path fill="#F5BB60" d="M24.02 42C33.95 42 42 33.95 42 24.02S33.95 6.038 24.02 6.038s-17.98 8.05-17.98 17.98S14.09 42 24.02 42Z"/><path fill="#E86F32" d="M22.186 38.373c8.94 0 16.187-7.247 16.187-16.187C38.373 13.246 31.126 6 22.186 6 13.246 6 6 13.247 6 22.186c0 8.94 7.247 16.187 16.186 16.187Z"/><path fill="#E53D42" d="M24.332 34.082c7.754 0 14.04-6.286 14.04-14.04C38.373 12.285 32.087 6 24.333 6 16.577 6 10.29 12.286 10.29 20.041c0 7.755 6.287 14.041 14.042 14.041Z"/><path fill="#BFD141" d="M25.463 34.082c7.13 0 12.91-5.78 12.91-12.91s-5.78-12.91-12.91-12.91-12.91 5.78-12.91 12.91 5.78 12.91 12.91 12.91Z"/><path fill="#6DB64C" d="M24.527 34.082c6.613 0 11.974-5.36 11.974-11.974 0-6.613-5.361-11.974-11.974-11.974s-11.974 5.361-11.974 11.974 5.36 11.974 11.974 11.974Z"/><path fill="#AFDBE7" d="M22.616 30.299c5.557 0 10.062-4.505 10.062-10.063 0-5.557-4.505-10.063-10.062-10.063-5.558 0-10.063 4.506-10.063 10.063 0 5.558 4.505 10.063 10.063 10.063Z"/><path fill="#57BADF" d="M24.253 26.984a8.425 8.425 0 1 0 0-16.85 8.425 8.425 0 0 0 0 16.85Z"/><path fill="#02B2D6" d="M25.307 27.023a7.41 7.41 0 1 0 0-14.821 7.41 7.41 0 0 0 0 14.82Z"/><path fill="url(#a)" d="M24.215 26.984a6.319 6.319 0 1 0 0-12.637 6.319 6.319 0 0 0 0 12.637Z"/><path fill="#231F20" d="M24.215 26.984a6.319 6.319 0 1 0 0-12.637 6.319 6.319 0 0 0 0 12.637Z"/><path fill="#fff" d="M25.874 19.837c.626.281 1.49-.284 1.93-1.263.439-.979.287-2-.34-2.282-.626-.28-1.49.285-1.93 1.264-.438.979-.287 2 .34 2.281Z"/><defs><radialGradient id="a" cx="0" cy="0" r="1" gradientTransform="translate(24.232 20.666) scale(6.33354)" gradientUnits="userSpaceOnUse"><stop stop-color="#797979"/><stop offset="1" stop-color="#4C4C4C"/></radialGradient></defs></svg>
